src/assets/svg/icons/html-icon.svg

<svg width="80px" height="80px" viewBox="0 0 90 100" fill="none" xmlns="http://www.w3.org/2000/svg">
<path d="M8.92813 90.034L0.906738 0H89.0934L81.072 89.9854L44.9272 100" fill="#E44D26"/>
<path d="M44.9998 92.344V7.39014H81.0474L74.1684 84.201" fill="#F16529"/>
<path d="M17.2898 18.4009H45.0001V29.4364H29.3948L30.4157 40.7392H45.0001V51.7504H20.3039L17.2898 18.4009ZM20.79 57.2925H31.8741L32.652 66.116L45.0001 69.4218V80.9434L22.3457 74.6235" fill="#EBEBEB"/>
<path d="M72.6126 18.4009H44.9509V29.4364H71.5917L72.6126 18.4009ZM70.5951 40.7392H44.9509V51.7747H58.563L57.2747 66.116L44.9509 69.4218V80.8948L67.5567 74.6235" fill="white"/>
</svg>

<svg xmlns="http://www.w3.org/2000/svg" width="80" height="80" viewBox="0 0 90 100" fill="none" xmlns:v="https://vecta.io/nano"><path d="M8.928 90.034L.907 0h88.187l-8.021 89.985L44.927 100" fill="#e44d26"/><path d="M45 92.344V7.39h36.048l-6.879 76.811" fill="#f16529"/><path d="M17.29 18.401H45v11.035H29.395l1.021 11.303H45V51.75H20.304L17.29 18.401zm3.5 38.892h11.084l.778 8.824L45 69.422v11.522l-22.654-6.32" fill="#ebebeb"/><path d="M72.613 18.401H44.951v11.035h26.641l1.021-11.035zm-2.017 22.338H44.951v11.036h13.612l-1.288 14.341-12.324 3.306v11.473l22.606-6.271" fill="#fff"/></svg>
